X:988
T:Polska
T:efter Pelle Fors
O:Vikbolandet, Östergötland
S:efter Pelle Fors
B:Låtar efter Pelle Fors
R:Polska
Z:Björn Ek 2009-01-10
M:3/4
L:1/16
K:G
%
|:{/B}d3B G2Bd g4|g2fg (ab)ag f2d2|d2g2 B2c2 d2e2|(dc)AF (GF)GD (CB,)A,G,|
d3B G2Bd g4|g2fg (ab)ag f2d2|d2g2 B2c2 d2e2|(dc)AF G8:|
%
|:(A2F2) (D2F2) A2c2|c2Bc (de)dc B2G2|(A2F2) (D2F2) A2c2|c2Bc (de)dc B2G2|
d3B G2Bd g4|g2fg (ab)ag f2d2|d2g2 B2c2 d2e2|(dc)AF G8:|
%
(:musicend:)

(:music:)
